X:1
T:Title
%%score { ( 1 3 ) | ( 2 4 5 ) }
L:1/8
M:4/4
K:Ab
V:1 treble nm="Grand Piano"
V:3 treble 
V:2 bass 
V:4 bass 
V:5 bass 
V:1
 z4 z2[Q:1/4=100] E2 | F3 E A2 c2 | e4 c2 A2 | c3 B A2 B2 |[M:3/4] c6 |[M:1/4] c2 | %6
[M:4/4] F3 F G2 A2 | z4 c2 z2 | e3 [EG] [EG]2 [=DF]2 |[M:3/4] E6 |[M:1/4] E2 | %11
[M:4/4] d3 d c2 [EB]2 | [EA]2 z2 z4 | [A,DF]3 [A,DF] [A,FA]2 [Fd]2 |[M:3/4] [Ec]6 |[M:1/4] c2 | %16
[M:4/4] e3 e [Gd]2 [G_c]2 | [Gc]2 BA [CEG]2 [EFA]2 | [EGB]3 [B,EG] [B,CG]2 [A,=DF]2 | %19
[M:3/4] [G,E]6 |[M:1/4] E2 |[M:4/4] F3 E A2 c2 | e4 c2 A2 | c3 B z C B2 | c6 A2 | z4 z2 [_Ge]2 | %26
 [Ff]4 z4 | z4 A2 z2 |[M:17/8] [CA]-[CA]-[CA]-[CA]-[CA]-[CA]- [CA]3 z z z z z z z2 | %29
[M:4/4] [DFA]8 | [CEA]8 |] %31
V:2
 z4 z2 E,2 | F,3 E, A,2[K:treble] [A,CA]2 | [CEc]4 [A,CA]2[K:bass] A,2 | %3
 [E,A,E]3 [E,DE] [E,CE]2 [E,G,E]2 |[M:3/4] [A,E]6 |[M:1/4] [A,E]2 | %6
[M:4/4] [A,B,=D]3 [A,B,D] [G,B,D]2 [F,B,D]2 | E4[K:treble] z4 | %8
 [B,G]3[K:bass] [B,,B,] [B,,B,]2 [B,,A,]2 |[M:3/4] [E,G,]6 |[M:1/4] E,2 | %11
[M:4/4] [E,G,E]3 [E,G,E] [E,G,E]2 [D,G,]2 | C,2 z F B,,2 A,,2 | D,3 D, D,2 [D,A,]2 | %14
[M:3/4] [A,,A,]6 |[M:1/4][K:treble] [A,CE]2 |[M:4/4] [G,CG]3 [G,CG][K:bass] [F,_C]2 [F,=D]2 | %17
 C2- [F,CF]2 C,2 _C,2 | B,,3 B,, B,,2 B,,2 |[M:3/4] E,6 |[M:1/4] E,2 | %21
[M:4/4] F,3 E, A,2[K:treble] [A,CA]2 | [CEc]4 [A,CA]2[K:bass] A,2 | z4 E2 z2 | [A,E]6 [A,CE]2 | %25
 [G,B,E]3 [_G,A,E] [F,A,D]2 .[E,B,]2 | D2 z2 z4 | [E,B,]2 z D z2 GE, | %28
[M:17/8] A,-A,-A,-A,-A,-A,- A,3 z z z z z z z2 |[M:4/4] D,8 | A,,8 |] %31
V:3
 x8 | x8 | x8 | x8 |[M:3/4] x6 |[M:1/4] x2 |[M:4/4] x8 | =A2 B2 z F=de | x8 |[M:3/4] x6 | %10
[M:1/4] x2 |[M:4/4] x8 | A,2- [A,=DG]2 [G,DE]2 [A,CE]2 | x8 |[M:3/4] x6 |[M:1/4] x2 |[M:4/4] x8 | %17
 x8 | x8 |[M:3/4] x6 |[M:1/4] x2 |[M:4/4] x8 | x8 | z4 A2 z2 | x8 | B3 c d2 z C | %26
 z2 A,2 [Fe]2 [Fd]2 | [Gd]2 .[CAc]2 [Ec]3 [DGB] |[M:17/8] x17 |[M:4/4] x8 | x8 |] %31
V:4
 x8 | x6[K:treble] x2 | x6[K:bass] x2 | x8 |[M:3/4] x6 |[M:1/4] x2 |[M:4/4] x8 | %7
 [_G,C]2 [=G,B,]2[K:treble] .[A,E]2 [=A,C_G]2 | x3[K:bass] x5 |[M:3/4] x6 |[M:1/4] x2 |[M:4/4] x8 | %12
 z2 _C,2 z4 | x8 |[M:3/4] x6 |[M:1/4][K:treble] x2 |[M:4/4] x4[K:bass] x4 | E,2 z2 z4 | x8 | %19
[M:3/4] x6 |[M:1/4] x2 |[M:4/4] x6[K:treble] x2 | x6[K:bass] x2 | [E,A,E]3 E z E, [E,G,E]2 | x8 | %25
 x8 | D,4 [C,=A,]2 [B,,B,]2 | z2 E,2 E,4 |[M:17/8] x17 |[M:4/4] x8 | x8 |] %31
V:5
 x8 | x6[K:treble] x2 | x6[K:bass] x2 | x8 |[M:3/4] x6 |[M:1/4] x2 |[M:4/4] x8 | x4[K:treble] x4 | %8
 x3[K:bass] x5 |[M:3/4] x6 |[M:1/4] x2 |[M:4/4] x8 | x8 | x8 |[M:3/4] x6 |[M:1/4][K:treble] x2 | %16
[M:4/4] x4[K:bass] x4 | x8 | x8 |[M:3/4] x6 |[M:1/4] x2 |[M:4/4] x6[K:treble] x2 | x6[K:bass] x2 | %23
 z2 z [E,D]- [E,D] z z2 | x8 | x8 | x8 | x8 |[M:17/8] x17 |[M:4/4] x8 | x8 |] %31

